src/Static/Positions/ks-position-31.svg

<?xml version="1.0" encoding="UTF-8"?>
<svg width="167px" height="235px" viewBox="0 0 167 235" version="1.1" xmlns="http://www.w3.org/2000/svg" xmlns:xlink="http://www.w3.org/1999/xlink">
    <title>sex-etsy-31</title>
    <defs>
        <path d="M72.875,222.8943 L82.8545,222.8943 C88.4248,222.8943 93.3223,219.2087 94.8652,213.8566 C96.4081,208.5045 94.2236,202.7775 89.5088,199.8122 L83.4617,196.0096 L78.6836,214.5054 C77.7805,218.0012 75.6689,220.9232 72.875,222.8943 Z" id="path-1"></path>
        <filter x="-52.2%" y="-27.4%" width="190.0%" height="166.4%" filterUnits="objectBoundingBox" id="filter-2">
            <feMorphology radius="1.5" operator="dilate" in="SourceAlpha" result="shadowSpreadOuter1"></feMorphology>
            <feOffset dx="0" dy="2" in="shadowSpreadOuter1" result="shadowOffsetOuter1"></feOffset>
            <feGaussianBlur stdDeviation="2" in="shadowOffsetOuter1" result="shadowBlurOuter1"></feGaussianBlur>
            <feComposite in="shadowBlurOuter1" in2="SourceAlpha" operator="out" result="shadowBlurOuter1"></feComposite>
            <feColorMatrix values="0 0 0 0 0   0 0 0 0 0   0 0 0 0 0  0 0 0 1 0" type="matrix" in="shadowBlurOuter1"></feColorMatrix>
        </filter>
        <path d="M12.5,222.8947 L55.8481,222.8947 C50.9624,219.4482 48.4434,213.2249 50.0253,207.1012 L55.9169,184.2955 L45.871,190.9127 C43.4491,192.5074 40.6376,193.3512 37.7401,193.3512 L37.6346,193.3502 C36.0396,193.5553 34.2672,193.6076 32.7093,193.6286 L39.494,197.8947 L12.5,197.8947 C5.5967,197.8947 0,203.4914 0,210.3947 C0,217.2985 5.5967,222.8947 12.5,222.8947 Z" id="path-3"></path>
        <filter x="-15.2%" y="-21.7%" width="136.1%" height="148.9%" filterUnits="objectBoundingBox" id="filter-4">
            <feMorphology radius="1.5" operator="dilate" in="SourceAlpha" result="shadowSpreadOuter1"></feMorphology>
            <feOffset dx="0" dy="2" in="shadowSpreadOuter1" result="shadowOffsetOuter1"></feOffset>
            <feGaussianBlur stdDeviation="2" in="shadowOffsetOuter1" result="shadowBlurOuter1"></feGaussianBlur>
            <feComposite in="shadowBlurOuter1" in2="SourceAlpha" operator="out" result="shadowBlurOuter1"></feComposite>
            <feColorMatrix values="0 0 0 0 0   0 0 0 0 0   0 0 0 0 0  0 0 0 1 0" type="matrix" in="shadowBlurOuter1"></feColorMatrix>
        </filter>
        <circle id="path-5" cx="25.3448" cy="76.0442" r="22.5"></circle>
        <filter x="-18.9%" y="-14.4%" width="137.8%" height="137.8%" filterUnits="objectBoundingBox" id="filter-6">
            <feMorphology radius="1.5" operator="dilate" in="SourceAlpha" result="shadowSpreadOuter1"></feMorphology>
            <feOffset dx="0" dy="2" in="shadowSpreadOuter1" result="shadowOffsetOuter1"></feOffset>
            <feGaussianBlur stdDeviation="2" in="shadowOffsetOuter1" result="shadowBlurOuter1"></feGaussianBlur>
            <feComposite in="shadowBlurOuter1" in2="SourceAlpha" operator="out" result="shadowBlurOuter1"></feComposite>
            <feColorMatrix values="0 0 0 0 0   0 0 0 0 0   0 0 0 0 0  0 0 0 1 0" type="matrix" in="shadowBlurOuter1"></feColorMatrix>
        </filter>
        <path d="M59.6367,179.0905 L52.2519,207.6764 C50.5253,214.361 54.5439,221.1793 61.2275,222.9059 C62.2763,223.1774 63.3281,223.3063 64.3632,223.3063 C69.9257,223.3063 75.0009,219.5651 76.457,213.9303 L91.957,153.9303 C92.8658,150.4115 92.1811,146.7585 90.2364,143.8523 L83.7839,146.2097 C82.6491,146.6247 81.4597,146.8352 80.2497,146.8352 C78.8864,146.8352 77.5573,146.5701 76.2976,146.0471 L68.9726,143.0037 L44.6504,159.026 C45.2864,150.5165 46.8379,142.0112 48.3482,134.4348 L35.3807,129.0472 C32.8407,127.9915 30.8631,126.0096 29.8123,123.4671 C28.7625,120.9241 28.7654,118.1243 29.8211,115.5838 C31.4236,111.7259 35.159,109.2337 39.3367,109.2337 C40.6941,109.2337 42.0222,109.4993 43.2849,110.0237 L50.6641,113.0896 C49.4185,107.2145 46.0035,102.3163 40.8228,101.0253 C32.2857,98.8964 19.9107,103.5331 14.8755,118.1757 C8.0708,138.3495 6.6079,151.4804 9.1939,173.6952 C12.3228,189.7968 23.358,191.4491 32.522,191.3319 C34.3911,191.3085 36.0449,191.2465 37.4932,191.0482 C39.9336,191.0965 42.4131,190.4366 44.6055,188.9918 L59.6367,179.0905 Z" id="path-7"></path>
        <filter x="-10.1%" y="-5.3%" width="120.1%" height="113.8%" filterUnits="objectBoundingBox" id="filter-8">
            <feMorphology radius="1.5" operator="dilate" in="SourceAlpha" result="shadowSpreadOuter1"></feMorphology>
            <feOffset dx="0" dy="2" in="shadowSpreadOuter1" result="shadowOffsetOuter1"></feOffset>
            <feGaussianBlur stdDeviation="2" in="shadowOffsetOuter1" result="shadowBlurOuter1"></feGaussianBlur>
            <feComposite in="shadowBlurOuter1" in2="SourceAlpha" operator="out" result="shadowBlurOuter1"></feComposite>
            <feColorMatrix values="0 0 0 0 0   0 0 0 0 0   0 0 0 0 0  0 0 0 1 0" type="matrix" in="shadowBlurOuter1"></feColorMatrix>
        </filter>
        <path d="M115.3916,115.1794 L107.6735,117.9992 L105.6344,135.7784 L109.8901,134.2236 L118.029,121.8529 C117.3086,119.8501 116.4482,117.6149 115.3916,115.1794 Z" id="path-9"></path>
        <filter x="-70.7%" y="-33.5%" width="240.6%" height="188.0%" filterUnits="objectBoundingBox" id="filter-10">
            <feMorphology radius="1.5" operator="dilate" in="SourceAlpha" result="shadowSpreadOuter1"></feMorphology>
            <feOffset dx="0" dy="2" in="shadowSpreadOuter1" result="shadowOffsetOuter1"></feOffset>
            <feGaussianBlur stdDeviation="2" in="shadowOffsetOuter1" result="shadowBlurOuter1"></feGaussianBlur>
            <feComposite in="shadowBlurOuter1" in2="SourceAlpha" operator="out" result="shadowBlurOuter1"></feComposite>
            <feColorMatrix values="0 0 0 0 0   0 0 0 0 0   0 0 0 0 0  0 0 0 1 0" type="matrix" in="shadowBlurOuter1"></feColorMatrix>
        </filter>
        <path d="M42.4021,112.1477 C38.323,110.4529 33.6404,112.3855 31.9451,116.4661 C30.2498,120.5462 32.1834,125.2278 36.2635,126.9231 L77.1805,143.9231 C78.1619,144.3308 79.2049,144.5354 80.2498,144.5354 C81.1785,144.5354 82.1082,144.3738 82.9949,144.0496 L90.4422,141.3288 C90.2695,141.1456 90.1005,140.958 89.9422,140.7586 C88.4793,138.9178 87.8221,136.618 88.0897,134.2825 L89.1825,124.7547 L80.4364,127.95 L42.4021,112.1477 Z" id="path-11"></path>
        <filter x="-14.4%" y="-19.7%" width="130.7%" height="151.5%" filterUnits="objectBoundingBox" id="filter-12">
            <feMorphology radius="1.5" operator="dilate" in="SourceAlpha" result="shadowSpreadOuter1"></feMorphology>
            <feOffset dx="0" dy="2" in="shadowSpreadOuter1" result="shadowOffsetOuter1"></feOffset>
            <feGaussianBlur stdDeviation="2" in="shadowOffsetOuter1" result="shadowBlurOuter1"></feGaussianBlur>
            <feComposite in="shadowBlurOuter1" in2="SourceAlpha" operator="out" result="shadowBlurOuter1"></feComposite>
            <feColorMatrix values="0 0 0 0 0   0 0 0 0 0   0 0 0 0 0  0 0 0 1 0" type="matrix" in="shadowBlurOuter1"></feColorMatrix>
        </filter>
        <path d="M144.856,30.4116 C147.2769,37.8369 135.5459,52.2684 139.62,62.9798 C145.0471,77.2481 158.6191,73.611 154.3615,72.0275 C150.1039,70.444 145.9346,65.7859 152.8343,50.4995 C160.2489,34.0725 153.2498,26.1935 146.5838,21.8904 C146.5349,24.8985 145.9263,27.7715 144.856,30.4116 Z" id="path-13"></path>
        <filter x="-49.1%" y="-14.8%" width="198.3%" height="135.1%" filterUnits="objectBoundingBox" id="filter-14">
            <feMorphology radius="1.5" operator="dilate" in="SourceAlpha" result="shadowSpreadOuter1"></feMorphology>
            <feOffset dx="0" dy="2" in="shadowSpreadOuter1" result="shadowOffsetOuter1"></feOffset>
            <feGaussianBlur stdDeviation="2" in="shadowOffsetOuter1" result="shadowBlurOuter1"></feGaussianBlur>
            <feComposite in="shadowBlurOuter1" in2="SourceAlpha" operator="out" result="shadowBlurOuter1"></feComposite>
            <feColorMatrix values="0 0 0 0 0   0 0 0 0 0   0 0 0 0 0  0 0 0 1 0" type="matrix" in="shadowBlurOuter1"></feColorMatrix>
        </filter>
        <circle id="path-15" cx="122.7938" cy="21.5" r="21.5"></circle>
        <filter x="-19.8%" y="-15.1%" width="139.5%" height="139.5%" filterUnits="objectBoundingBox" id="filter-16">
            <feMorphology radius="1.5" operator="dilate" in="SourceAlpha" result="shadowSpreadOuter1"></feMorphology>
            <feOffset dx="0" dy="2" in="shadowSpreadOuter1" result="shadowOffsetOuter1"></feOffset>
            <feGaussianBlur stdDeviation="2" in="shadowOffsetOuter1" result="shadowBlurOuter1"></feGaussianBlur>
            <feComposite in="shadowBlurOuter1" in2="SourceAlpha" operator="out" result="shadowBlurOuter1"></feComposite>
            <feColorMatrix values="0 0 0 0 0   0 0 0 0 0   0 0 0 0 0  0 0 0 0.5 0" type="matrix" in="shadowBlurOuter1"></feColorMatrix>
        </filter>
        <path d="M105.1609,53.8186 C105.4939,53.8186 105.8298,53.8376 106.1687,53.8762 C108.5037,54.1438 110.5955,55.3049 112.0574,57.1457 C113.5203,58.9865 114.1775,61.2863 113.9099,63.6218 L109.7745,99.6796 C115.4565,108.7116 118.5912,116.4887 120.5788,122.1614 L98.657,155.4814 C97.1267,157.8061 96.5828,160.643 97.1443,163.3691 L107.8113,215.2026 C108.8328,220.1684 113.2049,223.5879 118.0847,223.5879 C118.7859,223.5879 119.4978,223.5171 120.2117,223.3706 C125.8924,222.2017 129.5486,216.6494 128.3797,210.9692 L118.5887,163.3925 L147.6053,119.289 C152.6624,113.4799 154.0091,105.8558 144.8924,97.9487 C116.3304,73.1771 125.7567,61.8133 116.7371,51.4319 C107.5633,40.8701 96.1912,42.896 90.1414,50.8347 C92.9339,59.369 90.8357,63.769 89.3099,67.1614 C86.7508,69.9727 84.2376,72.9104 82.8241,75.0391 C82.6298,74.9641 82.4198,74.9187 82.1986,74.9187 C81.2323,74.9187 80.4486,75.7021 80.4486,76.6687 C80.4486,77.4351 80.9442,78.0793 81.6302,78.3162 C81.6009,83.9369 85.7552,91.8207 93.2188,89.5594 L96.4236,61.616 C96.9353,57.1707 100.6912,53.8186 105.1609,53.8186 Z" id="path-17"></path>
        <filter x="-12.0%" y="-3.6%" width="123.9%" height="109.5%" filterUnits="objectBoundingBox" id="filter-18">
            <feMorphology radius="1.5" operator="dilate" in="SourceAlpha" result="shadowSpreadOuter1"></feMorphology>
            <feOffset dx="0" dy="2" in="shadowSpreadOuter1" result="shadowOffsetOuter1"></feOffset>
            <feGaussianBlur stdDeviation="2" in="shadowOffsetOuter1" result="shadowBlurOuter1"></feGaussianBlur>
            <feComposite in="shadowBlurOuter1" in2="SourceAlpha" operator="out" result="shadowBlurOuter1"></feComposite>
            <feColorMatrix values="0 0 0 0 0   0 0 0 0 0   0 0 0 0 0  0 0 0 0.5 0" type="matrix" in="shadowBlurOuter1"></feColorMatrix>
        </filter>
        <path d="M90.3748,134.5447 C89.9656,138.1111 92.5262,141.3343 96.0926,141.7429 C96.3436,141.7717 96.5936,141.7859 96.8406,141.7859 C100.0994,141.7859 102.9099,139.3411 103.2908,136.0261 L111.6248,63.3596 C112.034,59.7932 109.4734,56.57 105.907,56.1614 C102.3474,55.7532 99.1189,58.3123 98.7088,61.8782 L90.3748,134.5447 Z" id="path-19"></path>
        <filter x="-39.8%" y="-7.6%" width="179.7%" height="119.8%" filterUnits="objectBoundingBox" id="filter-20">
            <feMorphology radius="1.5" operator="dilate" in="SourceAlpha" result="shadowSpreadOuter1"></feMorphology>
            <feOffset dx="0" dy="2" in="shadowSpreadOuter1" result="shadowOffsetOuter1"></feOffset>
            <feGaussianBlur stdDeviation="2" in="shadowOffsetOuter1" result="shadowBlurOuter1"></feGaussianBlur>
            <feComposite in="shadowBlurOuter1" in2="SourceAlpha" operator="out" result="shadowBlurOuter1"></feComposite>
            <feColorMatrix values="0 0 0 0 0   0 0 0 0 0   0 0 0 0 0  0 0 0 0.5 0" type="matrix" in="shadowBlurOuter1"></feColorMatrix>
        </filter>
    </defs>
    <g id="Page-2" stroke="none" stroke-width="1" fill="none" fill-rule="evenodd">
        <g id="sex-etsy-31" transform="translate(6.000000, 4.000000)" fill-rule="nonzero">
            <g id="Path">
                <use fill="black" fill-opacity="1" filter="url(#filter-2)" xlink:href="#path-1"></use>
                <use stroke="#1A1A1D" stroke-width="3" fill="#4E4E50" xlink:href="#path-1"></use>
            </g>
            <g id="Path">
                <use fill="black" fill-opacity="1" filter="url(#filter-4)" xlink:href="#path-3"></use>
                <use stroke="#1A1A1D" stroke-width="3" fill="#4E4E50" xlink:href="#path-3"></use>
            </g>
            <g id="Oval">
                <use fill="black" fill-opacity="1" filter="url(#filter-6)" xlink:href="#path-5"></use>
                <use stroke="#1A1A1D" stroke-width="3" fill="#4E4E50" xlink:href="#path-5"></use>
            </g>
            <g id="Path">
                <use fill="black" fill-opacity="1" filter="url(#filter-8)" xlink:href="#path-7"></use>
                <use stroke="#1A1A1D" stroke-width="3" fill="#4E4E50" xlink:href="#path-7"></use>
            </g>
            <g id="Path">
                <use fill="black" fill-opacity="1" filter="url(#filter-10)" xlink:href="#path-9"></use>
                <use stroke="#1A1A1D" stroke-width="3" fill="#4E4E50" xlink:href="#path-9"></use>
            </g>
            <g id="Path">
                <use fill="black" fill-opacity="1" filter="url(#filter-12)" xlink:href="#path-11"></use>
                <use stroke="#1A1A1D" stroke-width="3" fill="#4E4E50" xlink:href="#path-11"></use>
            </g>
            <g id="Path">
                <use fill="black" fill-opacity="1" filter="url(#filter-14)" xlink:href="#path-13"></use>
                <use stroke="#1A1A1D" stroke-width="3" fill="#6F2232" xlink:href="#path-13"></use>
            </g>
            <g id="Oval">
                <use fill="black" fill-opacity="1" filter="url(#filter-16)" xlink:href="#path-15"></use>
                <use stroke="#1A1A1D" stroke-width="3" fill="#6F2232" xlink:href="#path-15"></use>
            </g>
            <g id="Path">
                <use fill="black" fill-opacity="1" filter="url(#filter-18)" xlink:href="#path-17"></use>
                <use stroke="#1A1A1D" stroke-width="3" fill="#6F2232" xlink:href="#path-17"></use>
            </g>
            <g id="Path">
                <use fill="black" fill-opacity="1" filter="url(#filter-20)" xlink:href="#path-19"></use>
                <use stroke="#1A1A1D" stroke-width="3" fill="#6F2232" xlink:href="#path-19"></use>
            </g>
        </g>
    </g>
</svg>

<svg xmlns="http://www.w3.org/2000/svg" width="167" height="235" xmlns:xlink="http://www.w3.org/1999/xlink"><title>sex-etsy-31</title><defs><path id="b" d="M72.88 222.9h9.97c5.57 0 10.47-3.7 12.02-9.04 1.54-5.36-.65-11.08-5.36-14.05l-6.04-3.8-4.78 18.5c-.9 3.5-3 6.42-5.8 8.4z"/><filter id="a" width="190%" height="166.4%" x="-52.2%" y="-27.4%" filterUnits="objectBoundingBox"><feMorphology radius="1.5" operator="dilate" in="SourceAlpha" result="shadowSpreadOuter1"/><feOffset dy="2" in="shadowSpreadOuter1" result="shadowOffsetOuter1"/><feGaussianBlur stdDeviation="2" in="shadowOffsetOuter1" result="shadowBlurOuter1"/><feComposite in="shadowBlurOuter1" in2="SourceAlpha" operator="out" result="shadowBlurOuter1"/><feColorMatrix values="0 0 0 0 0 0 0 0 0 0 0 0 0 0 0 0 0 0 1 0" in="shadowBlurOuter1"/></filter><path id="d" d="M12.5 222.9h43.35c-4.9-3.45-7.4-9.68-5.82-15.8l5.9-22.8-10.06 6.6c-2.42 1.6-5.23 2.45-8.13 2.45h-.1c-1.6.2-3.37.26-4.93.28l6.8 4.26h-27c-6.9 0-12.5 5.6-12.5 12.5s5.6 12.5 12.5 12.5z"/><filter id="c" width="136.1%" height="148.9%" x="-15.2%" y="-21.7%" filterUnits="objectBoundingBox"><feMorphology radius="1.5" operator="dilate" in="SourceAlpha" result="shadowSpreadOuter1"/><feOffset dy="2" in="shadowSpreadOuter1" result="shadowOffsetOuter1"/><feGaussianBlur stdDeviation="2" in="shadowOffsetOuter1" result="shadowBlurOuter1"/><feComposite in="shadowBlurOuter1" in2="SourceAlpha" operator="out" result="shadowBlurOuter1"/><feColorMatrix values="0 0 0 0 0 0 0 0 0 0 0 0 0 0 0 0 0 0 1 0" in="shadowBlurOuter1"/></filter><circle id="f" cx="25.345" cy="76.044" r="22.5"/><filter id="e" width="137.8%" height="137.8%" x="-18.9%" y="-14.4%" filterUnits="objectBoundingBox"><feMorphology radius="1.5" operator="dilate" in="SourceAlpha" result="shadowSpreadOuter1"/><feOffset dy="2" in="shadowSpreadOuter1" result="shadowOffsetOuter1"/><feGaussianBlur stdDeviation="2" in="shadowOffsetOuter1" result="shadowBlurOuter1"/><feComposite in="shadowBlurOuter1" in2="SourceAlpha" operator="out" result="shadowBlurOuter1"/><feColorMatrix values="0 0 0 0 0 0 0 0 0 0 0 0 0 0 0 0 0 0 1 0" in="shadowBlurOuter1"/></filter><path id="h" d="M59.64 179.1l-7.4 28.58c-1.7 6.68 2.3 13.5 9 15.23 1.04.28 2.1.4 3.12.4 5.57 0 10.64-3.73 12.1-9.37l15.5-60c.9-3.52.22-7.17-1.72-10.08l-6.46 2.36c-1.13.42-2.32.64-3.53.64-1.36 0-2.7-.27-3.95-.8L68.97 143l-24.32 16.03c.64-8.5 2.2-17.02 3.7-24.6l-12.97-5.38c-2.54-1.06-4.52-3.04-5.57-5.58-1.04-2.55-1.03-5.35.02-7.9 1.6-3.84 5.34-6.34 9.52-6.34 1.35 0 2.68.27 3.94.8l7.38 3.06c-1.24-5.9-4.66-10.78-9.84-12.07-8.53-2.13-20.9 2.5-25.94 17.15-6.8 20.17-8.27 33.3-5.7 55.52 3.14 16.1 14.18 17.75 23.34 17.63 1.87-.02 3.52-.08 4.97-.28 2.43.05 4.9-.6 7.1-2.06l15.04-9.9z"/><filter id="g" width="120.1%" height="113.8%" x="-10.1%" y="-5.3%" filterUnits="objectBoundingBox"><feMorphology radius="1.5" operator="dilate" in="SourceAlpha" result="shadowSpreadOuter1"/><feOffset dy="2" in="shadowSpreadOuter1" result="shadowOffsetOuter1"/><feGaussianBlur stdDeviation="2" in="shadowOffsetOuter1" result="shadowBlurOuter1"/><feComposite in="shadowBlurOuter1" in2="SourceAlpha" operator="out" result="shadowBlurOuter1"/><feColorMatrix values="0 0 0 0 0 0 0 0 0 0 0 0 0 0 0 0 0 0 1 0" in="shadowBlurOuter1"/></filter><path id="j" d="M115.4 115.18l-7.73 2.82-2.04 17.78 4.26-1.56 8.13-12.37c-.72-2-1.58-4.24-2.64-6.67z"/><filter id="i" width="240.6%" height="188%" x="-70.7%" y="-33.5%" filterUnits="objectBoundingBox"><feMorphology radius="1.5" operator="dilate" in="SourceAlpha" result="shadowSpreadOuter1"/><feOffset dy="2" in="shadowSpreadOuter1" result="shadowOffsetOuter1"/><feGaussianBlur stdDeviation="2" in="shadowOffsetOuter1" result="shadowBlurOuter1"/><feComposite in="shadowBlurOuter1" in2="SourceAlpha" operator="out" result="shadowBlurOuter1"/><feColorMatrix values="0 0 0 0 0 0 0 0 0 0 0 0 0 0 0 0 0 0 1 0" in="shadowBlurOuter1"/></filter><path id="l" d="M42.4 112.15c-4.08-1.7-8.76.24-10.45 4.32-1.7 4.08.23 8.76 4.3 10.45l40.93 17c.98.4 2.02.62 3.07.62.93 0 1.86-.17 2.74-.5l7.44-2.7c-.17-.2-.34-.38-.5-.58-1.46-1.84-2.12-4.14-1.85-6.48l1.08-9.53-8.74 3.2-38.04-15.8z"/><filter id="k" width="130.7%" height="151.5%" x="-14.4%" y="-19.7%" filterUnits="objectBoundingBox"><feMorphology radius="1.5" operator="dilate" in="SourceAlpha" result="shadowSpreadOuter1"/><feOffset dy="2" in="shadowSpreadOuter1" result="shadowOffsetOuter1"/><feGaussianBlur stdDeviation="2" in="shadowOffsetOuter1" result="shadowBlurOuter1"/><feComposite in="shadowBlurOuter1" in2="SourceAlpha" operator="out" result="shadowBlurOuter1"/><feColorMatrix values="0 0 0 0 0 0 0 0 0 0 0 0 0 0 0 0 0 0 1 0" in="shadowBlurOuter1"/></filter><path id="n" d="M144.86 30.4c2.42 7.44-9.3 21.87-5.24 32.58 5.43 14.27 19 10.63 14.74 9.05-4.26-1.6-8.43-6.24-1.53-21.53 7.42-16.43.42-24.3-6.25-28.6-.05 3-.65 5.87-1.72 8.5z"/><filter id="m" width="198.3%" height="135.1%" x="-49.1%" y="-14.8%" filterUnits="objectBoundingBox"><feMorphology radius="1.5" operator="dilate" in="SourceAlpha" result="shadowSpreadOuter1"/><feOffset dy="2" in="shadowSpreadOuter1" result="shadowOffsetOuter1"/><feGaussianBlur stdDeviation="2" in="shadowOffsetOuter1" result="shadowBlurOuter1"/><feComposite in="shadowBlurOuter1" in2="SourceAlpha" operator="out" result="shadowBlurOuter1"/><feColorMatrix values="0 0 0 0 0 0 0 0 0 0 0 0 0 0 0 0 0 0 1 0" in="shadowBlurOuter1"/></filter><circle id="p" cx="122.794" cy="21.5" r="21.5"/><filter id="o" width="139.5%" height="139.5%" x="-19.8%" y="-15.1%" filterUnits="objectBoundingBox"><feMorphology radius="1.5" operator="dilate" in="SourceAlpha" result="shadowSpreadOuter1"/><feOffset dy="2" in="shadowSpreadOuter1" result="shadowOffsetOuter1"/><feGaussianBlur stdDeviation="2" in="shadowOffsetOuter1" result="shadowBlurOuter1"/><feComposite in="shadowBlurOuter1" in2="SourceAlpha" operator="out" result="shadowBlurOuter1"/><feColorMatrix values="0 0 0 0 0 0 0 0 0 0 0 0 0 0 0 0 0 0 0.5 0" in="shadowBlurOuter1"/></filter><path id="r" d="M105.16 53.82c.33 0 .67.02 1 .06 2.34.26 4.44 1.42 5.9 3.27 1.46 1.84 2.12 4.14 1.85 6.47l-4.13 36.06c5.7 9.03 8.82 16.8 10.8 22.48l-21.9 33.32c-1.54 2.33-2.1 5.16-1.53 7.9l10.67 51.82c1.03 4.97 5.4 8.4 10.28 8.4.7 0 1.42-.08 2.13-.23 5.7-1.17 9.35-6.72 8.18-12.4l-9.8-47.58 29.03-44.1c5.06-5.82 6.4-13.44-2.7-21.35-28.57-24.77-19.14-36.14-28.16-46.52-9.18-10.56-20.55-8.53-26.6-.6 2.8 8.54.7 12.94-.83 16.33-2.55 2.8-5.06 5.75-6.48 7.88-.2-.08-.4-.12-.62-.12-.97 0-1.75.78-1.75 1.75 0 .77.5 1.4 1.18 1.65-.03 5.62 4.13 13.5 11.6 11.24l3.2-27.94c.5-4.45 4.26-7.8 8.73-7.8z"/><filter id="q" width="123.9%" height="109.5%" x="-12%" y="-3.6%" filterUnits="objectBoundingBox"><feMorphology radius="1.5" operator="dilate" in="SourceAlpha" result="shadowSpreadOuter1"/><feOffset dy="2" in="shadowSpreadOuter1" result="shadowOffsetOuter1"/><feGaussianBlur stdDeviation="2" in="shadowOffsetOuter1" result="shadowBlurOuter1"/><feComposite in="shadowBlurOuter1" in2="SourceAlpha" operator="out" result="shadowBlurOuter1"/><feColorMatrix values="0 0 0 0 0 0 0 0 0 0 0 0 0 0 0 0 0 0 0.5 0" in="shadowBlurOuter1"/></filter><path id="t" d="M90.37 134.54c-.4 3.57 2.16 6.8 5.72 7.2.24.03.5.05.74.05 3.26 0 6.07-2.46 6.45-5.77l8.32-72.67c.4-3.57-2.15-6.8-5.7-7.2-3.57-.4-6.8 2.15-7.2 5.72l-8.35 72.66z"/><filter id="s" width="179.7%" height="119.8%" x="-39.8%" y="-7.6%" filterUnits="objectBoundingBox"><feMorphology radius="1.5" operator="dilate" in="SourceAlpha" result="shadowSpreadOuter1"/><feOffset dy="2" in="shadowSpreadOuter1" result="shadowOffsetOuter1"/><feGaussianBlur stdDeviation="2" in="shadowOffsetOuter1" result="shadowBlurOuter1"/><feComposite in="shadowBlurOuter1" in2="SourceAlpha" operator="out" result="shadowBlurOuter1"/><feColorMatrix values="0 0 0 0 0 0 0 0 0 0 0 0 0 0 0 0 0 0 0.5 0" in="shadowBlurOuter1"/></filter></defs><g fill="none"><g fill-rule="nonzero"><g id="Path" transform="translate(6 4)"><use fill="#000" filter="url(#a)" xlink:href="#b"/><use fill="#4E4E50" stroke="#1A1A1D" stroke-width="3" xlink:href="#b"/></g><g id="Path" transform="translate(6 4)"><use fill="#000" filter="url(#c)" xlink:href="#d"/><use fill="#4E4E50" stroke="#1A1A1D" stroke-width="3" xlink:href="#d"/></g><g id="Oval" transform="translate(6 4)"><use fill="#000" filter="url(#e)" xlink:href="#f"/><use fill="#4E4E50" stroke="#1A1A1D" stroke-width="3" xlink:href="#f"/></g><g id="Path" transform="translate(6 4)"><use fill="#000" filter="url(#g)" xlink:href="#h"/><use fill="#4E4E50" stroke="#1A1A1D" stroke-width="3" xlink:href="#h"/></g><g id="Path" transform="translate(6 4)"><use fill="#000" filter="url(#i)" xlink:href="#j"/><use fill="#4E4E50" stroke="#1A1A1D" stroke-width="3" xlink:href="#j"/></g><g id="Path" transform="translate(6 4)"><use fill="#000" filter="url(#k)" xlink:href="#l"/><use fill="#4E4E50" stroke="#1A1A1D" stroke-width="3" xlink:href="#l"/></g><g id="Path" transform="translate(6 4)"><use fill="#000" filter="url(#m)" xlink:href="#n"/><use fill="#6F2232" stroke="#1A1A1D" stroke-width="3" xlink:href="#n"/></g><g transform="translate(6 4)"><use fill="#000" filter="url(#o)" xlink:href="#p"/><use fill="#6F2232" stroke="#1A1A1D" stroke-width="3" xlink:href="#p"/></g><g id="Path" transform="translate(6 4)"><use fill="#000" filter="url(#q)" xlink:href="#r"/><use fill="#6F2232" stroke="#1A1A1D" stroke-width="3" xlink:href="#r"/></g><g transform="translate(6 4)"><use fill="#000" filter="url(#s)" xlink:href="#t"/><use fill="#6F2232" stroke="#1A1A1D" stroke-width="3" xlink:href="#t"/></g></g></g></svg>
